X:1
T:I Love My Jesus Quite Alone
T:I Love My Jesus Quite Alone
T:Composer Anonymous
T:Johannes Kelpius, before 1705 
T:Public Domain Courtesy of the Cyber Hymnal™
C:Composer Anonymous
Z:Public Domain
Z:Courtesy of the Cyber Hymnal™
%%score ( 1 2 ) 3
L:1/8
M:4/4
K:F
V:1 treble 
V:2 treble 
V:3 bass 
V:1
 z2 ([A,F][B,G]) A2 (GF) | (EF) (GA) F3 z E | [B,D]4 z2 G2 | C4- C2 [A,D]2 | =B,2 C2 D3 C | %5
w: 1.~I * love my *|Je- * sus * quite a-|* lone.|The * Bride,|the Bride- groom of|
w: 2.~The * mag- net *|nee- * dle * err- ing|* goes,|When * from,|when from the pole|
w: 3.~And * though Thou *|art * like * the north|* star|In * heav...|in heav- en al-|
 [G,C]4 [G,C]2 z2 | z2 (GF) E3 F | [CG]2 G2 [FA]2 ([EG][DF]) | [EG]4 z2 c2 | F4 E2 G2 | %10
w: my spir-|it; * No o-|thers shall my heart, *|no, none,|Through love, through|
w: dis- tract-|ed. * And take|be- fore quite no *|re- pose,|Till he, till|
w: ti- fied|And * I on|earth so dis- ta- *|nt far|I’ll fol... I’ll|
 [CE]2 F2 [FG]3 E | [CF]4 C2 z2 | z2 ([A,F][B,G]) A2 (GF) | (EF) (GA) F3 z E | [B,D]4 z2 G2 | %15
w: lov- ing more in-|her- it.|No * man can *|do * at * once for|two. For|
w: he has her at-|tract- ed.|And * since my *|heart * with * Thy love|dart Is|
w: fol- low u- n-|de- nied.|Still * Thee my *|Light, * and * my eye-|sight. Shall|
 C4- C2 [A,D]2 | =B,2 C2 [B,D]3 B, | [G,C]4 [G,C]2 (GF) | E2 [A,F]2 F3 E | [CF]4 [CF]4 |] %20
w: one’s, * for|one’s will and for|t’oth- ers: There- *|fore I’ll leave all|oth- ers.|
w: touched, * is|touched by its flaming|e- ther, There- *|fore, they haste to-|ge- ther.|
w: still, * shall|still be turned to|Thee, From ev- *|e- ry place, and|woo Thee.|
V:2
 x4 C4 | C2 E2 D2 D2 x | x8 | x8 | x4 =B,4 | x8 | x4 C4 | x2 G2 x4 | x8 | (F2 E2 D4) | x2 F2 C4 | %11
 x8 | x4 C4 | C2 E2 (D2 C2) x | x8 | x8 | x8 | x6 D2 | (CB,) x G,4 x | x8 |] %20
V:3
 F,,6 A,,2 | C,2 A,,2 D,2 D,,2 x | [G,,G,]4 z2 E,2 | A,6 F,2 | G,2 C,2 G,2 G,,2 | %5
 [C,,E,]4 [C,,E,]2 z2 | E,4 C,2 D,2 | E,4 F,2 F,,2 | C,4 z2 A,,2 | D,6 B,,2 | C,2 F,,2 C,2 C,,2 | %11
 [F,A,]4 [F,A,]2 z2 | F,,6 A,,2 | C,2 A,,2 D,2 D,,2 x | [G,,G,]4 z2 E,2 | A,6 F,2 | %16
 G,2 C,2 G,2 G,,2 | [C,E,]4 [C,E,]2 B,,2 | C,2 F,,2 C,2 C,,2 | [F,,F,A,]4 [F,,F,A,]4 |] %20

